X:1
T:Title
%%score { ( 1 3 ) | ( 2 4 ) }
L:1/8
M:6/4
K:F
V:1 treble nm="Grand Piano"
V:3 treble 
V:2 bass 
V:4 bass 
V:1
 z6 z4[Q:1/4=105] CF | A2 C2 F2 A d3 A2 | .c6 z6 | .A6 z6 | [G,CEG]6- [G,CEG]4 .[CEG]2 | %5
 .[=B,FG]6 [G,B,]2- [G,-B,-E]2 [G,B,F]2 |[M:5/4] E2 F2 ^F2 [EG]4 |[M:1/4] [EG]2 | %8
[M:6/4] A2 _A2 =A2 =B2 A2 G2 |[M:5/4] c2- c2- c6 |[M:1/4] [Ec]>[EB] |[M:6/4] A2 C2 D2 F A3 d2 | %12
 c12 | A2 G2 G2 d2 e2 d2 | [Ec]12 | [Dc] [DB]3 D2 [DB]4 [DFB][DFB] | B A3 C2 A4 AA | %17
 D2 A2 G2 [DEB] [CEA]3 [B,EG]2[Q:1/4=103][Q:1/4=102][Q:1/4=100][Q:1/4=98][Q:1/4=97][Q:1/4=95][Q:1/4=94][Q:1/4=92][Q:1/4=90][Q:1/4=89][Q:1/4=87][Q:1/4=85][Q:1/4=84][Q:1/4=82][Q:1/4=80] | %18
[M:5/4] F2- F2- F6 |] %19
V:2
 z6 z4 C,F, | A,2 C,2 F,2 A, D3 A,2 | G,2 C2 [F,_E]2 [B,,F,]4 [B,,F,]2 | %3
 F,2 B,2 A,2 [D,G,=B,]4 G,2 | C,6- C,4 z[K:treble] G | z2 z A G2[K:bass] G,,6 | %6
[M:5/4] C2 D2 [A,_E]2 [C,C]4 |[M:1/4] [C,C]2 | %8
[M:6/4][K:treble] F4- [D,DF-]2 [DF-]2 [CF-]2 [=B,F]2 |[M:5/4][K:bass] z2 G,2 A,2 B,4 | %10
[M:1/4] [C,G,]>[C,C] |[M:6/4] [F,CF]2 C,2 D,2 F, A,3 D2 | .C4[K:treble] D2 C4 [F,CF]>[F,CF] | %13
 [G,=B,F]2 [G,B,F]2 [G,B,F]2 [G,B,F]2 [G,CG]2 [G,B,F]2 | C,2 E,2 E,2 z4 [F,A,_E][F,A,E] | %15
 [B,,F,] [B,,F,]3 [B,,B,]2 [B,,F,]4 B,,B,, | [F,DF] [F,CF]3 [F,A,]2 [F,CF]4 [F,CF][F,CF] | %17
 [G,=B,]2 [G,B,D]2 [G,B,D]2 C, C,3 C,2 |[M:5/4] z2 C2 B,2 A,4 |] %19
V:3
 x12 | x12 | E2- [EG]2 A2 [DB]4 [DB]2 | C2- [C-G]2 [CF]2 F2 E2 F2 | x12 | z6 .D6 |[M:5/4] x10 | %7
[M:1/4] x2 |[M:6/4] x12 |[M:5/4] z2 E2 F2 G4 |[M:1/4] x2 |[M:6/4] x12 | z2 [A,F]2 B2 A4 A>A | x12 | %14
 C4- [G,C]2 C4 cc | x12 | x12 | x12 |[M:5/4] A,4 D2 C4 |] %19
V:4
 x12 | x12 | C,6 z6 | F,,6 z6 | z6 z4 C,2[K:treble] | D,6[K:bass] z6 |[M:5/4] [C,-G,]4 C,2 z4 | %7
[M:1/4] x2 |[M:6/4][K:treble] .[F,C]6 G,6 |[M:5/4][K:bass] C,2- C,2- C,6 |[M:1/4] x2 |[M:6/4] x12 | %12
 z2 F,4[K:treble] z6 | x12 | x12 | x12 | x12 | x12 |[M:5/4] F,2- F,2- F,6 |] %19

